!!!OTL: When I Was a Young Man
!!!ONM: 50.
**kern
*clefG2
*k[]
*C:
*M4/4
*MM80
{4e
=1
2c
4e
4g
=2
2cc
4a}
{4cc
=3
4a
4f
4d
4c
=4
2c
4r}
{4e
=5
4c
4e
4g
4cc
=6
4cc
4dd
4g}
{4dd
=7
4b
4g
4e
4g
=8
2c}
{2cc
=9
4a
4f
4d
4g
=10
2c}
{2e
=11
2d
2g
=12
2.c}
{4c
=13
4c
4g
4cc
4dd
=14
2.g}
{4e
=15
4c
4e
4g
8cc
8cc
=16
4cc
4dd
4g}
{8.a
16a
=17
4g
4f
4e
4d
=18
2.c}
==
*-
!!!CNT: Folksongs of Maritime Canada
!!!MRD: 1928///-1932///
!!!OCL: Helen Creighton
!!!YOR: Songs and Ballads from Nova Scotia
!!!PPR: J.M. Dent & Sons, Limited
!!!PPP: Toronto, Canada
!!!PDT: 1932///
!!!reprint: Dover Publications, 1992: ISBN 0-486-21703-5
!!!ENC1: Craig Stuart Sapp (music and bibliographic data)                       
!!!ENC2: Marcus Pearce (phrase markings and key designations)                   
!!!ENC3: Darrell Conklin (phrase markings and key designations)   
!!!END: 2002/04/10/
!!!EEV: 2004/06/05
!!!MPN: Mr. Enos Hartlan
!!!PPG: 101
!!!EFL: 51/152
!!!ARE: Canada; Nova Scotia
!!!verses: 5
!!!VTS: 1418609757
